icon-themes/breeze_svg/cmd/sc_objectalignright.svg

<svg viewBox="0 0 16 16" xmlns="http://www.w3.org/2000/svg">/&gt;<path d="m2 2v5h10v-5zm11 0v12h1v-12zm-10 1h8v3h-8zm4 6v5h5v-5zm1 1h3v3h-3z" fill="#4d4d4d"/></svg>

<svg xmlns="http://www.w3.org/2000/svg" viewBox="0 0 16 16">
     />
 <path 
     style="fill:#4d4d4d" 
     d="M 2 2 L 2 7 L 12 7 L 12 2 L 2 2 z M 13 2 L 13 14 L 14 14 L 14 2 L 13 2 z M 3 3 L 11 3 L 11 6 L 3 6 L 3 3 z M 7 9 L 7 14 L 12 14 L 12 9 L 7 9 z M 8 10 L 11 10 L 11 13 L 8 13 L 8 10 z "
     />
 </svg>
